X: 37426
T: Sliabh Geal gCua
R: hornpipe
M: 4/4
K: Dmajor
f>g|a3 g (f>age)|f3 e (dcA>B)|=c2 d4 (fe)|(d>cAF) G2 (FG)|
(Add>e) f2 (fg)|a3 g (f>age)|f3 e (dcA>B)|=c2 d4 (fe)|(d>cAF) G2 (FG)|
(Add>c) d3 A|(d>ef>g) a a2 a|(a>bag/f/) f a2 f|(f>ge>c) d e2 d|
(cAA>A) A2 (fg)|a3 g (f>age)|f3 e (dcA>B)|=c2 d4 (fe)|(d>cAF) G2 (FG)|(Add>c) d4||

